build/images/header/right-vector-xs.svg

<svg width="153" height="47" viewBox="0 0 153 47" fill="none" xmlns="http://www.w3.org/2000/svg">
<path d="M40.6112 43H39.0424C38.6747 42.999 38.3105 43.0723 37.9706 43.2154C37.6307 43.3586 37.3219 43.569 37.0619 43.8344L33.9604 47H35.6114C36.2353 47.0001 36.8345 46.7517 37.2815 46.3076L40.6112 43ZM44.8936 43H43.3248C42.9571 42.9989 42.5928 43.0721 42.2529 43.2153C41.913 43.3585 41.6042 43.5689 41.3443 43.8344L38.2419 47H39.893C40.5168 47.0002 41.1161 46.7518 41.5631 46.3076L44.8936 43ZM49.176 43H47.6072C47.2395 42.9989 46.8752 43.0721 46.5353 43.2153C46.1954 43.3585 45.8866 43.5689 45.6267 43.8344L42.5252 47H44.1758C44.7996 47.0002 45.3989 46.7518 45.8459 46.3076L49.176 43ZM53.4584 43H51.8896C51.5219 42.999 51.1576 43.0721 50.8177 43.2153C50.4778 43.3585 50.169 43.5689 49.9091 43.8344L46.8054 47H48.4561C49.0799 47.0002 49.6792 46.7518 50.1262 46.3076L53.4584 43ZM57.7408 43H56.172C55.8055 42.9999 55.4426 43.0736 55.104 43.2168C54.7654 43.3599 54.4578 43.5698 54.1987 43.8344L51.0972 47H52.7482C53.372 47.0002 53.9711 46.7518 54.4179 46.3076L57.7408 43ZM62.0232 43H60.4544C60.0879 42.9999 59.725 43.0736 59.3864 43.2168C59.0478 43.3599 58.7402 43.5698 58.4811 43.8344L55.3796 47H57.0306C57.6545 47.0001 58.2537 46.7517 58.7007 46.3076L62.0232 43ZM66.3056 43H64.7368C64.3703 43 64.0074 43.0737 63.6688 43.2168C63.3303 43.36 63.0226 43.5698 62.7635 43.8344L59.662 47H61.313C61.9368 47.0001 62.5361 46.7517 62.9831 46.3076L66.3056 43ZM70.588 43H69.0192C68.6527 43 68.2898 43.0737 67.9512 43.2169C67.6127 43.36 67.305 43.5698 67.0459 43.8344L63.9444 47H65.5954C66.2192 47.0001 66.8185 46.7517 67.2655 46.3076L70.588 43ZM74.8704 43H73.3016C72.9352 43 72.5723 43.0736 72.2338 43.2168C71.8953 43.36 71.5877 43.5698 71.3287 43.8344L68.2132 47H69.8642C70.4881 47.0002 71.0874 46.7518 71.5344 46.3076L74.8704 43ZM79.1528 43H77.584C77.2175 42.9999 76.8546 43.0736 76.516 43.2168C76.1774 43.3599 75.8698 43.5698 75.6107 43.8344L72.5087 47H74.1598C74.7836 47.0002 75.3829 46.7518 75.8299 46.3076L79.1528 43ZM83.4352 43H81.8664C81.4999 42.9999 81.137 43.0736 80.7984 43.2168C80.4598 43.3599 80.1522 43.5698 79.8931 43.8344L76.7915 47H78.4422C79.066 47.0002 79.6653 46.7518 80.1123 46.3076L83.4352 43ZM87.7176 43H86.1488C85.7823 42.9999 85.4194 43.0736 85.0808 43.2168C84.7422 43.3599 84.4346 43.5698 84.1755 43.8344L81.074 47H82.725C83.3487 47.0002 83.9479 46.7518 84.3947 46.3076L87.7176 43ZM92 43H90.4312C90.0647 43 89.7018 43.0737 89.3632 43.2168C89.0246 43.36 88.717 43.5698 88.4579 43.8344L85.3563 47H87.0074C87.6312 47.0001 88.2305 46.7517 88.6775 46.3076L92 43Z" fill="white"/>
<path d="M152 39L145 46H152V39Z" fill="white" stroke="white"/>
<circle cx="108" cy="4" r="3" fill="white" stroke="white"/>
<path d="M92 45H139.645L151 33.2995V4H110.529" stroke="white"/>
</svg>

<svg width="153" height="47" fill="none" xmlns="http://www.w3.org/2000/svg"><path d="M40.611 43h-1.569a2.742 2.742 0 00-1.071.215c-.34.144-.65.354-.91.62L33.962 47h1.65c.624 0 1.224-.248 1.67-.692L40.611 43zm4.283 0h-1.57a2.739 2.739 0 00-1.071.215c-.34.143-.649.354-.909.62L38.242 47h1.651c.624 0 1.223-.248 1.67-.692L44.893 43zm4.282 0h-1.569a2.739 2.739 0 00-1.072.215c-.34.143-.648.354-.908.62L42.525 47h1.65c.625 0 1.224-.248 1.67-.692L49.177 43zm4.282 0H51.89a2.74 2.74 0 00-1.072.215c-.34.143-.649.354-.909.62L46.805 47h1.651c.624 0 1.223-.248 1.67-.692L53.458 43zm4.283 0h-1.569c-.366 0-.73.074-1.068.217a2.785 2.785 0 00-.905.617L51.097 47h1.651c.624 0 1.223-.248 1.67-.692L57.74 43zm4.282 0h-1.569c-.366 0-.729.074-1.068.217a2.785 2.785 0 00-.905.617L55.38 47h1.65c.624 0 1.224-.248 1.67-.692L62.024 43zm4.283 0h-1.57a2.74 2.74 0 00-1.067.217 2.787 2.787 0 00-.905.617L59.662 47h1.651c.624 0 1.223-.248 1.67-.692L66.306 43zm4.282 0h-1.569c-.366 0-.73.074-1.068.217a2.786 2.786 0 00-.905.617L63.944 47h1.651c.624 0 1.224-.248 1.67-.692L70.588 43zm4.282 0h-1.568c-.367 0-.73.074-1.068.217a2.786 2.786 0 00-.905.617L68.213 47h1.651c.624 0 1.223-.248 1.67-.692L74.87 43zm4.283 0h-1.569c-.367 0-.73.074-1.068.217a2.785 2.785 0 00-.905.617L72.509 47h1.65c.625 0 1.224-.248 1.67-.692L79.154 43zm4.282 0h-1.569c-.366 0-.729.074-1.068.217a2.785 2.785 0 00-.905.617L76.791 47h1.651c.624 0 1.223-.248 1.67-.692L83.435 43zm4.283 0h-1.57a2.74 2.74 0 00-1.067.217 2.785 2.785 0 00-.906.617L81.075 47h1.651c.624 0 1.223-.248 1.67-.692L87.718 43zM92 43h-1.569c-.366 0-.73.074-1.068.217a2.786 2.786 0 00-.905.617L85.356 47h1.651c.624 0 1.224-.248 1.67-.692L92 43z" fill="#fff"/><path d="M152 39l-7 7h7v-7z" fill="#fff" stroke="#fff"/><circle cx="108" cy="4" r="3" fill="#fff" stroke="#fff"/><path d="M92 45h47.645L151 33.3V4h-40.471" stroke="#fff"/></svg>
